src/components/card-container/img/frame-selected.svg

<svg width="320" height="480" viewBox="0 0 320 480" fill="none" xmlns="http://www.w3.org/2000/svg">
<mask id="path-2-inside-1" fill="white">
<path fill-rule="evenodd" clip-rule="evenodd" d="M0 42.6762V468C0 474.627 5.37259 480 12 480H308C314.627 480 320 474.627 320 468V12C320 5.37258 314.627 0 308 0H42.6762L0 42.6762Z"/>
</mask>
<path d="M0 42.6762L-2.82843 39.8478L-4 41.0193V42.6762H0ZM42.6762 0V-4H41.0193L39.8478 -2.82843L42.6762 0ZM4 468V42.6762H-4V468H4ZM12 476C7.58173 476 4 472.418 4 468H-4C-4 476.837 3.16345 484 12 484V476ZM308 476H12V484H308V476ZM316 468C316 472.418 312.418 476 308 476V484C316.837 484 324 476.837 324 468H316ZM316 12V468H324V12H316ZM308 4C312.418 4 316 7.58172 316 12H324C324 3.16344 316.837 -4 308 -4V4ZM42.6762 4H308V-4H42.6762V4ZM39.8478 -2.82843L-2.82843 39.8478L2.82843 45.5046L45.5046 2.82843L39.8478 -2.82843Z" fill="#D91667" mask="url(#path-2-inside-1)"/>
<mask id="path-4-inside-2" fill="white">
<path fill-rule="evenodd" clip-rule="evenodd" d="M0 42.6762V468C0 474.627 5.37259 480 12 480H308C314.627 480 320 474.627 320 468V12C320 5.37258 314.627 0 308 0H42.6762L42.6224 0.0538254L38.6762 4H308C312.418 4 316 7.58173 316 12V468C316 472.418 312.418 476 308 476H12C7.58173 476 4 472.418 4 468V38.6762L0 42.6762ZM33.0193 4H12C7.58172 4 4 7.58172 4 12V33.0193L0 37.0193V12C0 5.37257 5.37258 0 12 0H37.0193L33.0193 4Z"/>
</mask>
<path d="M0 42.6762L-2.82843 39.8478L-4 41.0193V42.6762H0ZM42.6762 0V-4H41.0193L39.8478 -2.82843L42.6762 0ZM38.6762 4L35.8478 1.17157L29.0193 8H38.6762V4ZM4 38.6762H8V29.0193L1.17157 35.8478L4 38.6762ZM33.0193 4V8H34.6762L35.8478 6.82843L33.0193 4ZM4 33.0193L6.82843 35.8478L8 34.6762V33.0193H4ZM0 37.0193H-4V46.6762L2.82843 39.8478L0 37.0193ZM37.0193 0L39.8478 2.82843L46.6762 -4L37.0193 -4V0ZM-4 42.6762V468H4V42.6762H-4ZM-4 468C-4 476.837 3.16345 484 12 484V476C7.58173 476 4 472.418 4 468H-4ZM12 484H308V476H12V484ZM308 484C316.837 484 324 476.837 324 468H316C316 472.418 312.418 476 308 476V484ZM324 468V12H316V468H324ZM324 12C324 3.16344 316.837 -4 308 -4V4C312.418 4 316 7.58172 316 12H324ZM308 -4H42.6762V4H308V-4ZM39.8478 -2.82843L39.7939 -2.7746L45.4508 2.88225L45.5046 2.82843L39.8478 -2.82843ZM39.7939 -2.7746L35.8478 1.17157L41.5046 6.82843L45.4508 2.88225L39.7939 -2.7746ZM308 0H38.6762V8H308V0ZM320 12C320 5.37259 314.627 0 308 0V8C310.209 8 312 9.79086 312 12H320ZM320 468V12H312V468H320ZM308 480C314.627 480 320 474.627 320 468H312C312 470.209 310.209 472 308 472V480ZM12 480H308V472H12V480ZM0 468C0 474.627 5.37259 480 12 480V472C9.79086 472 8 470.209 8 468H0ZM0 38.6762V468H8V38.6762H0ZM1.17157 35.8478L-2.82843 39.8478L2.82843 45.5046L6.82843 41.5046L1.17157 35.8478ZM33.0193 0H12V8H33.0193V0ZM12 0C5.37258 0 0 5.37257 0 12H8C8 9.79086 9.79085 8 12 8V0ZM0 12V33.0193H8V12H0ZM2.82843 39.8478L6.82843 35.8478L1.17157 30.1909L-2.82843 34.1909L2.82843 39.8478ZM-4 12V37.0193H4V12H-4ZM12 -4C3.16345 -4 -4 3.16343 -4 12H4C4 7.58172 7.58172 4 12 4V-4ZM37.0193 -4H12V4H37.0193V-4ZM35.8478 6.82843L39.8478 2.82843L34.1909 -2.82843L30.1909 1.17157L35.8478 6.82843Z" fill="#D91667" mask="url(#path-4-inside-2)"/>
<mask id="mask0" mask-type="alpha" maskUnits="userSpaceOnUse" x="0" y="0" width="320" height="480">
<mask id="path-6-inside-3" mask-type="luminance" fill="white">
<path fill-rule="evenodd" clip-rule="evenodd" d="M0 42.6762V468C0 474.627 5.37259 480 12 480H308C314.627 480 320 474.627 320 468V12C320 5.37258 314.627 0 308 0H42.6762L42.6224 0.0538254L38.6762 4H308C312.418 4 316 7.58173 316 12V468C316 472.418 312.418 476 308 476H12C7.58173 476 4 472.418 4 468V38.6762L0 42.6762ZM33.0193 4H12C7.58172 4 4 7.58172 4 12V33.0193L0 37.0193V12C0 5.37257 5.37258 0 12 0H37.0193L33.0193 4Z"/>
</mask>
<path fill-rule="evenodd" clip-rule="evenodd" d="M0 42.6762V468C0 474.627 5.37259 480 12 480H308C314.627 480 320 474.627 320 468V12C320 5.37258 314.627 0 308 0H42.6762L42.6224 0.0538254L38.6762 4H308C312.418 4 316 7.58173 316 12V468C316 472.418 312.418 476 308 476H12C7.58173 476 4 472.418 4 468V38.6762L0 42.6762ZM33.0193 4H12C7.58172 4 4 7.58172 4 12V33.0193L0 37.0193V12C0 5.37257 5.37258 0 12 0H37.0193L33.0193 4Z" fill="white"/>
<path d="M0 42.6762L-2.82843 39.8478L-4 41.0193V42.6762H0ZM42.6762 0V-4H41.0193L39.8478 -2.82843L42.6762 0ZM38.6762 4L35.8478 1.17157L29.0193 8H38.6762V4ZM4 38.6762H8V29.0193L1.17157 35.8478L4 38.6762ZM33.0193 4V8H34.6762L35.8478 6.82843L33.0193 4ZM4 33.0193L6.82843 35.8478L8 34.6762V33.0193H4ZM0 37.0193H-4V46.6762L2.82843 39.8478L0 37.0193ZM37.0193 0L39.8478 2.82843L46.6762 -4L37.0193 -4V0ZM-4 42.6762V468H4V42.6762H-4ZM-4 468C-4 476.837 3.16345 484 12 484V476C7.58173 476 4 472.418 4 468H-4ZM12 484H308V476H12V484ZM308 484C316.837 484 324 476.837 324 468H316C316 472.418 312.418 476 308 476V484ZM324 468V12H316V468H324ZM324 12C324 3.16344 316.837 -4 308 -4V4C312.418 4 316 7.58172 316 12H324ZM308 -4H42.6762V4H308V-4ZM39.8478 -2.82843L39.7939 -2.7746L45.4508 2.88225L45.5046 2.82843L39.8478 -2.82843ZM39.7939 -2.7746L35.8478 1.17157L41.5046 6.82843L45.4508 2.88225L39.7939 -2.7746ZM308 0H38.6762V8H308V0ZM320 12C320 5.37259 314.627 0 308 0V8C310.209 8 312 9.79086 312 12H320ZM320 468V12H312V468H320ZM308 480C314.627 480 320 474.627 320 468H312C312 470.209 310.209 472 308 472V480ZM12 480H308V472H12V480ZM0 468C0 474.627 5.37259 480 12 480V472C9.79086 472 8 470.209 8 468H0ZM0 38.6762V468H8V38.6762H0ZM1.17157 35.8478L-2.82843 39.8478L2.82843 45.5046L6.82843 41.5046L1.17157 35.8478ZM33.0193 0H12V8H33.0193V0ZM12 0C5.37258 0 0 5.37257 0 12H8C8 9.79086 9.79085 8 12 8V0ZM0 12V33.0193H8V12H0ZM2.82843 39.8478L6.82843 35.8478L1.17157 30.1909L-2.82843 34.1909L2.82843 39.8478ZM-4 12V37.0193H4V12H-4ZM12 -4C3.16345 -4 -4 3.16343 -4 12H4C4 7.58172 7.58172 4 12 4V-4ZM37.0193 -4H12V4H37.0193V-4ZM35.8478 6.82843L39.8478 2.82843L34.1909 -2.82843L30.1909 1.17157L35.8478 6.82843Z" fill="white" mask="url(#path-6-inside-3)"/>
</mask>
<g mask="url(#mask0)">
</g>
</svg>

<svg width="320" height="480" fill="none" xmlns="http://www.w3.org/2000/svg"><mask id="a" fill="#fff"><path fill-rule="evenodd" clip-rule="evenodd" d="M0 42.676V468c0 6.627 5.373 12 12 12h296c6.627 0 12-5.373 12-12V12c0-6.627-5.373-12-12-12H42.676l-.054.054L38.676 4H308a8 8 0 018 8v456a8 8 0 01-8 8H12a8 8 0 01-8-8V38.676l-4 4zM33.02 4H12a8 8 0 00-8 8v21.02l-4 4V12C0 5.373 5.373 0 12 0h25.02l-4 4z"/></mask><path d="M0 42.676l-2.828-2.828L-4 41.019v1.657h4zM42.676 0v-4H41.02l-1.171 1.172L42.676 0zm-4 4l-2.828-2.828L29.019 8h9.657V4zM4 38.676h4V29.02l-6.828 6.829L4 38.676zM33.02 4v4h1.656l1.172-1.172L33.019 4zM4 33.02l2.828 2.828L8 34.676V33.02H4zm-4 4h-4v9.656l6.828-6.828L0 37.019zM37.02 0l2.828 2.828L46.676-4H37.02v4zM-4 42.676V468h8V42.676h-8zM-4 468c0 8.837 7.163 16 16 16v-8a8 8 0 01-8-8h-8zm16 16h296v-8H12v8zm296 0c8.837 0 16-7.163 16-16h-8a8 8 0 01-8 8v8zm16-16V12h-8v456h8zm0-456c0-8.837-7.163-16-16-16v8a8 8 0 018 8h8zM308-4H42.676v8H308v-8zM39.848-2.828l-.054.053 5.657 5.657.054-.054-5.657-5.656zm-.054.053l-3.946 3.947 5.657 5.656 3.946-3.946-5.657-5.657zM308 0H38.676v8H308V0zm12 12c0-6.627-5.373-12-12-12v8a4 4 0 014 4h8zm0 456V12h-8v456h8zm-12 12c6.627 0 12-5.373 12-12h-8a4 4 0 01-4 4v8zm-296 0h296v-8H12v8zM0 468c0 6.627 5.373 12 12 12v-8a4 4 0 01-4-4H0zM0 38.676V468h8V38.676H0zm1.172-2.828l-4 4 5.656 5.657 4-4-5.656-5.657zM33.019 0H12v8h21.02V0zM12 0C5.373 0 0 5.373 0 12h8a4 4 0 014-4V0zM0 12v21.02h8V12H0zm2.828 27.848l4-4-5.656-5.657-4 4 5.656 5.657zM-4 12v25.02h8V12h-8zM12-4C3.163-4-4 3.163-4 12h8a8 8 0 018-8v-8zm25.02 0H12v8h25.02v-8zM35.847 6.828l4-4-5.657-5.656-4 4 5.657 5.656z" fill="#D91667" mask="url(#a)"/><mask id="c" maskUnits="userSpaceOnUse" x="0" y="0" width="320" height="480"><mask id="b" fill="#fff"><path fill-rule="evenodd" clip-rule="evenodd" d="M0 42.676V468c0 6.627 5.373 12 12 12h296c6.627 0 12-5.373 12-12V12c0-6.627-5.373-12-12-12H42.676l-.054.054L38.676 4H308a8 8 0 018 8v456a8 8 0 01-8 8H12a8 8 0 01-8-8V38.676l-4 4zM33.02 4H12a8 8 0 00-8 8v21.02l-4 4V12C0 5.373 5.373 0 12 0h25.02l-4 4z"/></mask><path fill-rule="evenodd" clip-rule="evenodd" d="M0 42.676V468c0 6.627 5.373 12 12 12h296c6.627 0 12-5.373 12-12V12c0-6.627-5.373-12-12-12H42.676l-.054.054L38.676 4H308a8 8 0 018 8v456a8 8 0 01-8 8H12a8 8 0 01-8-8V38.676l-4 4zM33.02 4H12a8 8 0 00-8 8v21.02l-4 4V12C0 5.373 5.373 0 12 0h25.02l-4 4z" fill="#fff"/><path d="M0 42.676l-2.828-2.828L-4 41.019v1.657h4zM42.676 0v-4H41.02l-1.171 1.172L42.676 0zm-4 4l-2.828-2.828L29.019 8h9.657V4zM4 38.676h4V29.02l-6.828 6.829L4 38.676zM33.02 4v4h1.656l1.172-1.172L33.019 4zM4 33.02l2.828 2.828L8 34.676V33.02H4zm-4 4h-4v9.656l6.828-6.828L0 37.019zM37.02 0l2.828 2.828L46.676-4H37.02v4zM-4 42.676V468h8V42.676h-8zM-4 468c0 8.837 7.163 16 16 16v-8a8 8 0 01-8-8h-8zm16 16h296v-8H12v8zm296 0c8.837 0 16-7.163 16-16h-8a8 8 0 01-8 8v8zm16-16V12h-8v456h8zm0-456c0-8.837-7.163-16-16-16v8a8 8 0 018 8h8zM308-4H42.676v8H308v-8zM39.848-2.828l-.054.053 5.657 5.657.054-.054-5.657-5.656zm-.054.053l-3.946 3.947 5.657 5.656 3.946-3.946-5.657-5.657zM308 0H38.676v8H308V0zm12 12c0-6.627-5.373-12-12-12v8a4 4 0 014 4h8zm0 456V12h-8v456h8zm-12 12c6.627 0 12-5.373 12-12h-8a4 4 0 01-4 4v8zm-296 0h296v-8H12v8zM0 468c0 6.627 5.373 12 12 12v-8a4 4 0 01-4-4H0zM0 38.676V468h8V38.676H0zm1.172-2.828l-4 4 5.656 5.657 4-4-5.656-5.657zM33.019 0H12v8h21.02V0zM12 0C5.373 0 0 5.373 0 12h8a4 4 0 014-4V0zM0 12v21.02h8V12H0zm2.828 27.848l4-4-5.656-5.657-4 4 5.656 5.657zM-4 12v25.02h8V12h-8zM12-4C3.163-4-4 3.163-4 12h8a8 8 0 018-8v-8zm25.02 0H12v8h25.02v-8zM35.847 6.828l4-4-5.657-5.656-4 4 5.657 5.656z" fill="#fff" mask="url(#b)"/></mask></svg>
